X:8
T:"Die Wiederverheirateten"
C:traditionelle Melodien, zusammengestellt von S.Wascher 
F:http://simonwascher.info
Z:abc transcription Simon Wascher
M:2/4
L:1/16
K:G
GA |\
B2d2 A2c2 | B2G2 Gd^cd | c2A2 Ad^cd | B2G2 GABc |
B2d2 A2c2 | B2G2 Gd^cd | c2A2 DEFD | G2G2G2 :|
|: dc |\
B2d2 G2B2 | c4AGFE | D2F2 G2A2 | B6dc |
B2d2 G2B2 | c3d cBAG | F2DF A2F2 | GFGAG2 :|
%%wordsfont Times-Italic 11pt
W:aus Simon Waschers TradArchiv
